X: 1334
T: An Peata Sa Chistineach
R: jig
M: 6/8
K: Amajor
g|:aAA AGA|FAA EAA|FAA GBB|cAc Bce|
aAA AGA|FAA EAA|FAA GBB|cAG A2e:|
|:cee dff|cee ecA|cee fga|ecA BAB|
cee dff|cee ecA|Bdc BAB|cAG A2B:|

